exampleSite/static/images/brand.svg

<svg width="134" height="62" viewBox="0 0 134 62" fill="none" xmlns="http://www.w3.org/2000/svg">
<path d="M0.432617 60H17.4826V1.4H0.432617V60ZM40.7561 40.5C41.0227 40.5 41.4394 40.5167 42.0061 40.55C42.6061 40.5833 43.1727 40.6167 43.7061 40.65C44.2394 40.6833 44.8561 40.7167 45.5561 40.75C46.2894 40.75 46.9727 40.75 47.6061 40.75C47.7061 40.75 47.7894 40.75 47.8561 40.75C48.4894 42.7833 48.9727 45.3167 49.3061 48.35C49.6727 51.35 49.9561 53.9333 50.1561 56.1C50.3561 58.2333 50.6394 59.5333 51.0061 60H69.4561C68.7561 59.1 68.1061 57.75 67.5061 55.95C66.9394 54.15 66.4227 52.3333 65.9561 50.5C65.5227 48.6333 65.0061 46.8 64.4061 45C63.8061 43.1667 62.9561 41.5833 61.8561 40.25C60.7894 38.9167 59.5061 38.0667 58.0061 37.7C60.7727 35.9333 62.9894 33.55 64.6561 30.55C66.3561 27.55 67.2061 24.1167 67.2061 20.25C67.2061 13.7167 65.4227 8.86667 61.8561 5.7C58.3227 2.53334 52.9561 0.950002 45.7561 0.950002C43.6894 0.950002 41.0727 1.03334 37.9061 1.2C34.7394 1.33333 32.3561 1.4 30.7561 1.4H24.1561V60H40.7561V40.5ZM40.7561 31.2V10.6H41.7061C44.5394 10.6 46.7061 11.1833 48.2061 12.35C49.7394 13.4833 50.5061 15.5 50.5061 18.4V22.35C50.5061 23.6833 50.4061 24.85 50.2061 25.85C50.0061 26.85 49.7061 27.6667 49.3061 28.3C48.9061 28.9333 48.4727 29.45 48.0061 29.85C47.5727 30.25 47.0061 30.55 46.3061 30.75C45.6394 30.9167 45.0227 31.0333 44.4561 31.1C43.8894 31.1667 43.1894 31.2 42.3561 31.2H40.7561ZM72.7959 60H89.8459V1.4H72.7959V60ZM114.119 61.05C120.286 61.05 124.986 59.3333 128.219 55.9C131.486 52.4333 133.119 47.4 133.119 40.8C133.119 36.7333 131.969 33.2833 129.669 30.45C127.403 27.6167 123.836 25.1667 118.969 23.1C118.503 22.8 117.803 22.4167 116.869 21.95C115.969 21.45 115.253 21.0333 114.719 20.7C114.219 20.3667 113.669 19.9667 113.069 19.5C112.469 19.0333 112.036 18.5167 111.769 17.95C111.503 17.3833 111.369 16.75 111.369 16.05C111.369 13.3833 113.503 12.05 117.769 12.05C119.536 12.05 121.386 12.4333 123.319 13.2C125.286 13.9333 126.919 15.0667 128.219 16.6L130.719 6.95C130.619 6.78333 130.453 6.56667 130.219 6.3C129.986 6 129.419 5.5 128.519 4.8C127.653 4.06667 126.686 3.43333 125.619 2.9C124.553 2.36667 123.069 1.88333 121.169 1.45C119.303 0.983336 117.303 0.750003 115.169 0.750003C101.736 0.750003 95.0193 6.7 95.0193 18.6C95.0193 20.8 95.3527 22.8667 96.0193 24.8C96.686 26.7 97.4527 28.2667 98.3193 29.5C99.186 30.7 100.303 31.8667 101.669 33C103.069 34.1 104.186 34.9 105.019 35.4C105.853 35.8667 106.869 36.4 108.069 37C111.369 38.6 113.686 39.9667 115.019 41.1C116.386 42.2333 117.069 43.6 117.069 45.2C117.069 46.7 116.469 47.7333 115.269 48.3C114.103 48.8667 112.186 49.15 109.519 49.15C106.853 49.15 104.369 48.4833 102.069 47.15C99.7693 45.7833 97.936 44.1833 96.5693 42.35L95.3193 54.5C95.9527 55.1667 96.736 55.8333 97.6693 56.5C98.636 57.1667 99.8693 57.8667 101.369 58.6C102.869 59.3333 104.719 59.9167 106.919 60.35C109.153 60.8167 111.553 61.05 114.119 61.05Z" fill="white"/>
</svg>

<svg fill="none" viewBox="0 0 134 62"><path fill="#fff" d="M.433 60h17.05V1.4H.433V60zm40.323-19.5c.267 0 .683.017 1.25.05.6.033 1.167.067 1.7.1.533.033 1.15.067 1.85.1h2.3c.633 2.033 1.117 4.567 1.45 7.6.367 3 .65 5.583.85 7.75.2 2.133.483 3.433.85 3.9h18.45c-.7-.9-1.35-2.25-1.95-4.05-.567-1.8-1.083-3.617-1.55-5.45-.433-1.867-.95-3.7-1.55-5.5-.6-1.833-1.45-3.417-2.55-4.75-1.067-1.333-2.35-2.183-3.85-2.55 2.767-1.767 4.983-4.15 6.65-7.15 1.7-3 2.55-6.433 2.55-10.3 0-6.533-1.783-11.383-5.35-14.55-3.533-3.167-8.9-4.75-16.1-4.75-2.067 0-4.683.083-7.85.25-3.167.133-5.55.2-7.15.2h-6.6V60h16.6V40.5zm0-9.3V10.6h.95c2.833 0 5 .583 6.5 1.75 1.533 1.133 2.3 3.15 2.3 6.05v3.95c0 1.333-.1 2.5-.3 3.5-.2 1-.5 1.817-.9 2.45-.4.633-.833 1.15-1.3 1.55-.433.4-1 .7-1.7.9-.667.167-1.283.283-1.85.35-.567.067-1.267.1-2.1.1h-1.6zM72.796 60h17.05V1.4h-17.05V60zm41.323 1.05c6.167 0 10.867-1.717 14.1-5.15 3.267-3.467 4.9-8.5 4.9-15.1 0-4.067-1.15-7.517-3.45-10.35-2.266-2.833-5.833-5.283-10.7-7.35-.466-.3-1.166-.683-2.1-1.15-.9-.5-1.616-.917-2.15-1.25a28.19 28.19 0 01-1.65-1.2c-.6-.467-1.033-.983-1.3-1.55-.266-.567-.4-1.2-.4-1.9 0-2.667 2.134-4 6.4-4 1.767 0 3.617.383 5.55 1.15 1.967.733 3.6 1.867 4.9 3.4l2.5-9.65a4.856 4.856 0 00-.5-.65c-.233-.3-.8-.8-1.7-1.5a14.491 14.491 0 00-2.9-1.9c-1.066-.533-2.55-1.017-4.45-1.45-1.866-.467-3.866-.7-6-.7-13.433 0-20.15 5.95-20.15 17.85 0 2.2.334 4.267 1 6.2.667 1.9 1.434 3.467 2.3 4.7.867 1.2 1.984 2.367 3.35 3.5 1.4 1.1 2.517 1.9 3.35 2.4.834.467 1.85 1 3.05 1.6 3.3 1.6 5.617 2.967 6.95 4.1 1.367 1.133 2.05 2.5 2.05 4.1 0 1.5-.6 2.533-1.8 3.1-1.166.567-3.083.85-5.75.85-2.666 0-5.15-.667-7.45-2-2.3-1.367-4.133-2.967-5.5-4.8L95.32 54.5c.634.667 1.417 1.333 2.35 2 .967.667 2.2 1.367 3.7 2.1 1.5.733 3.35 1.317 5.55 1.75 2.234.467 4.634.7 7.2.7z"/></svg>
